X:1
T:Vort frie Flag
T:Vort frie Flag
T:Ord af Hovden
T:Johannes Haarklou
C:Johannes Haarklou
%%score [ ( 1 2 ) ( 3 4 ) ]
L:1/8
Q:1/4=90
M:4/4
K:B
V:1 treble-8 nm="Tenori"
V:2 treble-8 
V:3 bass nm="Bassi"
V:4 bass 
V:1
!f!!f! B,2 |: F2 F2 B2 c2 | d3 B G2 B2 | c2 d2 e3 d | c4 z2 F2 | c2 c2 d2 e2 | f3 d B2 Bc | %7
w: 1.Flug|upp vort fri- e|nor- ske Flag med|ber- re No- rig|i! Aa|sving deg upp mot|Sol og Dag högt *|
w: |laan- te Far- gor|sokk i Grus; og|sök- ka skal med|deim alt|fra- mandt Fusk i|No- rigs Hus, al *|
w: |fri- e Flag det|steig paa Stong i|No- rigs sto- re|Stund til|Fag- nad- rop og|Fol- ke- song og *|
w: |upp vort fri- e|nor- ske Flag med|di- ne Vil- je-|lyn! Du|au- ka skal i|Lyd og Log som *|
 d3 g f2 ^e2 | f4 z2!mf! f2 | A2 B2 c2 d2 | e3 e (d3 c) |!<(! Bc d e f3 g!<)! | (=a4 g2) f2 | %13
w: y- vi Land og|Li! Det|er vor dy- re|Sam- lings- pakt _|födt _ i ein Vil- je-|kveik. _ Det|
w: Ving- ling i vor|Heim! For|gam- le So- ga|se- gjer ho: Naar|Nord- * * menn No- rig|raar, _ fær|
w: Graat med Smil um|Munn. Me|vig- dest til eit|Sys- sken- lag, vort|Blod _ _ i Byl- gja|breid, _ flaut|
w: Dron- ning Ragn- hilds|Syn. Aa|sving deg fa- gert|upp og svay _|högt _ y- vi Land og|Sjö. _ Det|
 A2 B2 c2 d2 | e3 e d3 B | d3 d c2 c2 | B4 z2 (3def |1 g3 B B2 A2 | B4 z2 B,2 :|2 g3 B c2 f2 || %20
w: er vort Blod, som|slær i Takt mot|sa- me Fram- tids-|leik, mot _ _|sa- me Fram- tids-|leik. 2.Dei||
w: Fol- ke Frægd paa|Land og Sjö, men|el- les Hus- mands-|kaar, men _ _|el- les Hus- mands-|kaar. 3.Vort|Aan- ni byr- gjar|
w: sa- man til eit|Vil- je- drag i|sa- me nor- ske|Leid, i _ _|sa- me nor- ske|Leid. 4.Flug||
w: vig- slar oss vor|Ar- beids- dag; for|Aan- ni byr- gjar|no, fyr _ _|_ _ _ _|||
 d8- | d6 |] %22
w: ||
w: no.|_|
w: ||
w: ||
V:2
 B,2 |: F2 F2 F2 A2 | B3 F E2 G2 | A2 B2 c3 B | A4 x2 F2 | c2 c2 B2 B2 | B3 B G2 Bc | d3 d c2 B2 | %8
 A4 x2 FG | A2 B2 c2 B2 | B3 B (A3 A) | GA B c d3 d | (d2 e4) FG | A2 B2 c2 B2 | B3 B A3 G | %15
 B3 B A2 A2 | G4 x2 (3Bcd |1 e3 G G2 F2 | F4 x2 B,2 :|2 e3 B B2 A2 || B8- | B6 |] %22
V:3
!f!!f! B,,2 |: F,2 F,2 F,2 F,2 | F,3 F, G,2 G,2 | F,2 F,2 G,3 G, | A,4 z2 F,2 | F,2 F,2 F,2 F,2 | %6
w: ||||||
w: ||||||
w: ||||||
w: ||||||
 F,3 F, G,2 G,A, | B,3 B, G,2 G,2 | F,4 z2!mf! D,2 | E,2 F,2 G,2 G,2 | G,3 G, (^^F,3 F,) | %11
w: |||||
w: |||||
w: |||||
w: |||||
!<(! G,A, B, B, B,3 B,!<)! | B,6 F,2 | E,2 F,2 G,2 G,2 | G,3 G, ^^F,3 G, | ^F,6 F,2 | %16
w: ||||sa- me,|
w: ||||el- les,|
w: ||||sa- me,|
w: ||||Aan- ni,|
 B,3 B, A,2 A,2 |1 B,3 E, E,2 E,2 | D,4 z2 B,,2 :|2 B,3 G, F,2 F,2 || F,8- | F,6 |] %22
w: sa- me Fram- tids,||||||
w: el- les Hus- mands,||||||
w: sa- me nor- ske,||||||
w: Aan- ni byr- gjar,||||||
V:4
 B,,2 |: F,2 E,2 D,2 C,2 | B,,3 D, E,2 E,2 | E,2 D,2 C,3 E, | F,4 x2 F,2 | A,,2 A,,2 B,,2 C,2 | %6
 D,3 F, G,2 G,A, | B,3 B,, C,2 C,2 | F,,4 x2 F,,2 | C,2 D,2 E,2 B,,2 | C,3 C, (D,3 D,) | %11
 G,2 G, G, =A,3 G, | (F,2 E,4) D,2 | C,2 D,2 E,2 B,,2 | C,3 C, D,3 E, | F,6 F,2 | G,3 G, F,2 F,2 |1 %17
 E,3 E, C,2 F,,2 | B,,4 x2 B,,2 :|2 E,3 G,, F,,2 F,,2 || B,,8- | B,,6 |] %22

